icons/mobile/24/svg/external-link-24.svg

<svg width="24" height="24" viewBox="0 0 24 24" fill="none" xmlns="http://www.w3.org/2000/svg">
<path d="M12.001 4.75C9.97205 4.75 7.92309 4.89473 5.91016 5.17871C5.24916 5.27171 4.75098 5.85609 4.75098 6.53809V17.459C4.75098 18.142 5.26145 18.7302 5.93945 18.8262C9.95723 19.3901 14.076 19.3872 18.0908 18.8213C18.7518 18.7283 19.25 18.1439 19.25 17.4619V12H21.001V17.4619C21.001 19.0109 19.8559 20.3397 18.3359 20.5537C16.2429 20.8497 14.111 21 12.001 21C9.90207 21 7.78122 20.8516 5.69531 20.5586C4.15931 20.3426 3.00098 19.01 3.00098 17.459V6.53809C3.00098 4.98909 4.14602 3.66029 5.66602 3.44629C7.75902 3.15129 9.87898 3.00293 12.001 3.00293V4.75Z" fill="black"/>
<path d="M20.25 3C20.664 3 21 3.336 21 3.75V8.29102C21 8.96198 20.1858 9.29629 19.7148 8.81738L18.082 7.15625L12.8574 12.3818C12.5154 12.7238 11.9611 12.7238 11.6191 12.3818C11.2772 12.0398 11.2772 11.4846 11.6191 11.1426L16.8545 5.90625L15.2529 4.27637C14.7869 3.80237 15.1231 3.00002 15.7881 3H20.25Z" fill="black"/>
</svg>

<!-- This Source Code Form is subject to the terms of the Mozilla Public
   - License, v. 2.0. If a copy of the MPL was not distributed with this
   - file, You can obtain one at http://mozilla.org/MPL/2.0/. -->
<svg xmlns="http://www.w3.org/2000/svg" width="24" height="24" fill="none" viewBox="0 0 24 24">
    <path fill="#000" d="M12.001 4.75a44 44 0 0 0-6.09.429 1.37 1.37 0 0 0-1.16 1.36v10.92c0 .683.51 1.271 1.188 1.367 4.018.564 8.137.561 12.152-.005a1.37 1.37 0 0 0 1.159-1.36V12h1.751v5.462c0 1.549-1.145 2.878-2.665 3.092A45 45 0 0 1 12 21c-2.099 0-4.22-.148-6.306-.441A3.144 3.144 0 0 1 3 17.459V6.539c0-1.55 1.145-2.879 2.665-3.093A45 45 0 0 1 12 3.003z" />
    <path fill="#000" d="M20.25 3a.75.75 0 0 1 .75.75v4.541a.75.75 0 0 1-1.285.526l-1.633-1.66-5.225 5.225a.876.876 0 1 1-1.238-1.24l5.236-5.236-1.602-1.63A.75.75 0 0 1 15.788 3z" />
</svg>
